X:1
T:Scotch Mist [1]
M:C
L:1/8
R:Strathspey
S:Kerr – Merry Melodies, vol. 3 (135)
Z:AK/Fiddler’s Companion
K:C
e<e d>c (e<g) g2 | e<e d>c (3dfg (3fga | e<e d>c A>Bc>A |
G>EG>c (B<d) d2 :||:c>eg>e a>ge>g | c>de>c A<c G<c |
c>eg>e a>ge>g |1 f>ed>c (B<d) d2 :|2 (3edc (3BAG (G<c) c2 :|]

